!!! OTL: Berkowitz548
!!! Chapter: 1
!!! Section: V
!!! Page: 138
!!! Mode: 
!!! Encoder: DJB
**kern
*staff1
*I"Piano
=1-
*clefG2
*k[]
*C:
*M9/8
8r
8g/L
8f#/J
8g/L
8a/
8b-/J
4a-/
8g/
=2
8r
8g/L
8f#/J
8g/L
8a-/
8b-/J
4a-/
8g-/
=3
4e/
8e/
4f#/
8e/
8r
8e/L
8f#/J
=4
4a-/
8b-\
8cc\L
8b-\
8a-\J
4an/
8g/
=5
!!linebreak:original
8r
8f#/L
8g#/J
8a/L
8gn/
8fn/J
4e/
8e-/
=6
8r
8d-/L
8e-/J
8en/L
8f#/
8g/J
4f#/
8e/
=7
8e-/L
8f/
8f#/J
8e-/
4d/
4.c#/
==
*-
